X:710
T:Reel 710
M:4/4
K:Dmaj
L:1/8
c|A2AG AGEF|GEEE CEEC|A2AD AGAG|FAED CDD2|A2AG AGEF|GEEE c2cE|DEFG A2cd|cAGE ADD|c|dcAd d2ed|cdef gffd|d2Ac d2ed|cAGE EDD2|dcAd d2ed|cdef g2fg| (3agf ge fded|cAGE EDD|
